images/icon-services-7.svg

<svg width="48" height="48" viewBox="0 0 48 48" fill="none" xmlns="http://www.w3.org/2000/svg">
<g clip-path="url(#clip0_323_97)">
<path d="M24.3442 24.0592C23.1171 23.8713 21.8629 24.1199 20.8002 24.7616C19.7376 24.1196 18.4833 23.871 17.2562 24.0592C16.1318 24.2211 15.0914 24.7467 14.2939 25.5557C13.4965 26.3647 12.9859 27.4126 12.8402 28.5392C12.671 29.8781 13.0379 31.2297 13.861 32.2992C14.0118 32.4842 14.1013 32.7115 14.117 32.9496C14.1634 34.8696 14.2594 38.8536 16.4538 41.6512C16.7107 41.9755 17.0623 42.2117 17.4598 42.3266C17.8572 42.4416 18.2806 42.4297 18.671 42.2926C19.0614 42.1555 19.3992 41.9 19.6375 41.5618C19.8758 41.2235 20.0025 40.8193 20.0002 40.4056V36.7408C20.0096 36.5483 20.0899 36.3661 20.2256 36.2293C20.3614 36.0925 20.543 36.0108 20.7354 36C20.8411 35.9924 20.9471 36.0072 21.0467 36.0435C21.1462 36.0797 21.237 36.1366 21.313 36.2104C21.4019 36.2933 21.4731 36.3932 21.5225 36.5043C21.5718 36.6154 21.5983 36.7353 21.6002 36.8568V40.452C21.6099 40.8612 21.7454 41.2575 21.9883 41.587C22.2312 41.9165 22.5697 42.1632 22.9578 42.2934C23.3458 42.4237 23.7646 42.4312 24.1571 42.315C24.5496 42.1988 24.8968 41.9645 25.1514 41.644C27.341 38.8528 27.437 34.8616 27.4834 32.944C27.499 32.7062 27.5882 32.4792 27.7386 32.2944C28.5621 31.225 28.9293 29.8734 28.7602 28.5344C28.6135 27.4087 28.1025 26.3619 27.3051 25.5538C26.5078 24.7458 25.4679 24.2208 24.3442 24.0592ZM26.469 31.324C26.1108 31.7763 25.9057 32.3307 25.8834 32.9072C25.8418 34.6528 25.7538 38.2856 23.893 40.6576C23.8566 40.7031 23.8103 40.7396 23.7576 40.7643C23.7049 40.789 23.6472 40.8012 23.589 40.8C23.4944 40.7957 23.4041 40.7591 23.3333 40.6962C23.2625 40.6332 23.2155 40.5479 23.2002 40.4544V36.8592C23.1987 36.5173 23.1269 36.1794 22.9893 35.8664C22.8517 35.5535 22.6512 35.2722 22.4002 35.04C22.1633 34.8158 21.8821 34.6438 21.5747 34.5349C21.2673 34.4261 20.9405 34.3828 20.6154 34.408C20.0209 34.4483 19.4632 34.7104 19.0529 35.1425C18.6426 35.5746 18.4097 36.145 18.4002 36.7408V40.4056C18.3998 40.4957 18.369 40.583 18.3129 40.6534C18.2567 40.7239 18.1783 40.7732 18.0906 40.7936C18.0212 40.8065 17.9496 40.8007 17.8832 40.777C17.8167 40.7532 17.7577 40.7123 17.7122 40.6584C15.8466 38.2808 15.7586 34.6512 15.717 32.9072C15.6946 32.3304 15.4892 31.7756 15.1306 31.3232C14.5638 30.5859 14.3111 29.6547 14.4274 28.732C14.5382 27.9565 14.8958 27.2373 15.4472 26.6809C15.9986 26.1244 16.7145 25.7603 17.489 25.6424C17.6773 25.6145 17.8674 25.6003 18.0578 25.6C18.8734 25.5977 19.6667 25.8665 20.313 26.364C20.4527 26.4713 20.624 26.5295 20.8002 26.5295C20.9764 26.5295 21.1476 26.4713 21.2874 26.364C21.6846 26.0587 22.1399 25.8374 22.6254 25.7136C23.1108 25.5899 23.6164 25.5662 24.1114 25.644C24.8858 25.7619 25.6018 26.126 26.1532 26.6825C26.7046 27.2389 27.0621 27.9581 27.173 28.7336C27.2888 29.6561 27.0358 30.587 26.469 31.324Z" fill="#1E84B5"/>
<path d="M44.1603 8.01597C44.0573 7.99478 43.9512 7.99424 43.8479 8.01436C43.7447 8.03449 43.6465 8.07488 43.559 8.13321C43.4715 8.19155 43.3965 8.26665 43.3382 8.35418C43.2799 8.44172 43.2396 8.53994 43.2195 8.64317L41.9315 15.0808C41.8908 15.2839 41.7956 15.4721 41.6563 15.6254C41.517 15.7787 41.3387 15.8913 41.1404 15.9512C40.9421 16.0111 40.7313 16.0162 40.5304 15.9657C40.3294 15.9153 40.146 15.8113 39.9995 15.6648L37.3099 12.9752C36.9618 12.6274 36.5408 12.3612 36.0774 12.1957C35.614 12.0302 35.1197 11.9695 34.63 12.018C34.1403 12.0665 33.6675 12.223 33.2456 12.4762C32.8236 12.7294 32.4631 13.0731 32.1899 13.4824L29.3099 17.8024C28.966 16.49 28.3249 15.2742 27.4363 14.249C26.5477 13.2238 25.4354 12.4165 24.1851 11.8896L32.2835 7.96077C32.4729 7.86889 32.6422 7.74056 32.7819 7.58313C32.9216 7.4257 33.0288 7.24227 33.0975 7.04333C33.1661 6.84439 33.1949 6.63387 33.1821 6.4238C33.1692 6.21374 33.1151 6.00827 33.0227 5.81917L32.5859 4.91997C32.0877 3.88926 31.3912 2.96689 30.5362 2.20561C29.6811 1.44434 28.6844 0.859088 27.6031 0.483343C26.5217 0.107599 25.3768 -0.0512689 24.234 0.0158263C23.0911 0.0829215 21.9727 0.374664 20.9427 0.874365L8.11794 7.08157C7.08788 7.58035 6.16625 8.27729 5.40574 9.13253C4.64524 9.98777 4.06078 10.9845 3.68579 12.0658C3.3108 13.1471 3.15263 14.2917 3.22033 15.4342C3.28803 16.5766 3.58027 17.6945 4.08033 18.724L4.80034 20.1872V32C4.80034 36.2434 6.48604 40.3131 9.48663 43.3137C12.4872 46.3143 16.5569 48 20.8003 48C25.0438 48 29.1135 46.3143 32.114 43.3137C35.1146 40.3131 36.8003 36.2434 36.8003 32V20.8C36.8003 20.3756 36.6318 19.9687 36.3317 19.6686C36.0317 19.3685 35.6247 19.2 35.2003 19.2H30.2955L33.5155 14.3704C33.6631 14.165 33.8527 13.9934 34.0717 13.867C34.2908 13.7406 34.5342 13.6623 34.7859 13.6373C35.0375 13.6124 35.2916 13.6413 35.5312 13.7222C35.7708 13.803 35.9905 13.934 36.1755 14.1064L38.8651 16.8C39.2164 17.1512 39.6564 17.4004 40.1383 17.5212C40.6201 17.642 41.1257 17.6298 41.6011 17.4859C42.0765 17.3419 42.504 17.0717 42.8379 16.7039C43.1718 16.3361 43.3996 15.8846 43.4971 15.3976L44.7843 8.95997C44.8054 8.85701 44.8059 8.75091 44.7859 8.64775C44.766 8.54458 44.7258 8.44636 44.6679 8.35869C44.61 8.27103 44.5353 8.19564 44.4482 8.13684C44.3611 8.07803 44.2633 8.03696 44.1603 8.01597ZM27.9507 19.2H24.7203C24.5367 18.2957 24.0462 17.4828 23.3317 16.8989C22.6173 16.3149 21.723 15.996 20.8003 15.996C19.8777 15.996 18.9833 16.3149 18.2689 16.8989C17.5545 17.4828 17.0639 18.2957 16.8803 19.2H13.6531C13.7551 18.2849 14.0339 17.3983 14.4739 16.5896L22.0451 12.9216C23.5743 13.1927 24.975 13.9503 26.0391 15.0815C27.1031 16.2127 27.7736 17.6571 27.9507 19.2ZM23.0531 19.2H18.5475C18.7105 18.7323 19.0149 18.327 19.4185 18.0401C19.8222 17.7533 20.3051 17.5992 20.8003 17.5992C21.2955 17.5992 21.7785 17.7533 22.1821 18.0401C22.5858 18.327 22.8902 18.7323 23.0531 19.2ZM5.51473 18.0192C5.1074 17.1788 4.86967 16.2664 4.81516 15.3341C4.76065 14.4018 4.89041 13.4679 5.19704 12.5857C5.50366 11.7036 5.98113 10.8906 6.60215 10.1931C7.22317 9.49557 7.97557 8.92731 8.81634 8.52077L21.6395 2.31517C22.4806 1.90682 23.3939 1.66834 24.3272 1.61338C25.2605 1.55842 26.1955 1.68806 27.0786 1.99487C27.9617 2.30169 28.7757 2.77966 29.4739 3.40142C30.1721 4.02319 30.7408 4.77654 31.1475 5.61837L31.5867 6.51997L5.96593 18.9336L5.51473 18.0192ZM12.3307 17.628C12.1908 18.1425 12.0979 18.6686 12.0531 19.2H9.08673L12.3307 17.628ZM35.2003 32C35.2003 35.8191 33.6832 39.4818 30.9827 42.1823C28.2821 44.8828 24.6195 46.4 20.8003 46.4C16.9812 46.4 13.3185 44.8828 10.618 42.1823C7.91747 39.4818 6.40034 35.8191 6.40034 32V20.8H35.2003V32Z" fill="#0E384C"/>
</g>
<defs>
<clipPath id="clip0_323_97">
<rect width="48" height="48" fill="white"/>
</clipPath>
</defs>
</svg>

<svg xmlns="http://www.w3.org/2000/svg" width="48" height="48" fill="none" viewBox="0 0 48 48"><g clip-path="url(#a)"><path fill="#1e84b5" d="M24.344 24.06a5.3 5.3 0 0 0-3.544.702 5.3 5.3 0 0 0-3.544-.703 5.2 5.2 0 0 0-4.416 4.48 5.1 5.1 0 0 0 1.021 3.76c.15.185.24.413.256.65.046 1.92.142 5.905 2.337 8.702A1.988 1.988 0 0 0 20 40.406V36.74a.78.78 0 0 1 1.313-.53.9.9 0 0 1 .287.646v3.595a1.992 1.992 0 0 0 3.551 1.192c2.19-2.791 2.286-6.782 2.332-8.7.016-.238.105-.465.256-.65a5.1 5.1 0 0 0 1.021-3.76 5.2 5.2 0 0 0-4.416-4.475m2.125 7.264a2.72 2.72 0 0 0-.586 1.583c-.041 1.746-.13 5.379-1.99 7.75a.38.38 0 0 1-.56.04.4.4 0 0 1-.133-.243V36.86a2.49 2.49 0 0 0-1.625-2.324 2.3 2.3 0 0 0-.96-.127 2.376 2.376 0 0 0-2.215 2.333v3.665a.4.4 0 0 1-.31.388.4.4 0 0 1-.378-.136c-1.865-2.377-1.953-6.007-1.995-7.75a2.72 2.72 0 0 0-.586-1.585 3.53 3.53 0 0 1-.704-2.591 3.65 3.65 0 0 1 3.63-3.132 3.68 3.68 0 0 1 2.256.764.8.8 0 0 0 .974 0 3.7 3.7 0 0 1 2.824-.72 3.65 3.65 0 0 1 3.062 3.09 3.53 3.53 0 0 1-.704 2.59"/><path fill="#0e384c" d="M44.16 8.016a.795.795 0 0 0-.94.627l-1.288 6.438a1.144 1.144 0 0 1-1.933.584l-2.69-2.69a3.327 3.327 0 0 0-5.12.507l-2.88 4.32a8.85 8.85 0 0 0-5.124-5.912l8.098-3.93a1.6 1.6 0 0 0 .74-2.14l-.437-.9A8.71 8.71 0 0 0 20.943.874L8.118 7.082A8.71 8.71 0 0 0 4.08 18.724l.72 1.463V32a16 16 0 0 0 32 0V20.8a1.6 1.6 0 0 0-1.6-1.6h-4.905l3.22-4.83a1.782 1.782 0 0 1 2.66-.264l2.69 2.694a2.745 2.745 0 0 0 4.632-1.402l1.287-6.438a.8.8 0 0 0-.624-.944M27.95 19.2h-3.23a4 4 0 0 0-7.84 0h-3.227a7.1 7.1 0 0 1 .82-2.61l7.572-3.668a7.21 7.21 0 0 1 5.906 6.278m-4.897 0h-4.506a2.387 2.387 0 0 1 4.506 0M5.515 18.02a7.107 7.107 0 0 1 3.301-9.5L21.64 2.316a7.11 7.11 0 0 1 9.508 3.303l.439.902L5.966 18.934zm6.816-.392a9 9 0 0 0-.278 1.572H9.087zM35.2 32a14.4 14.4 0 1 1-28.8 0V20.8h28.8z"/></g><defs><clipPath id="a"><path fill="#fff" d="M0 0h48v48H0z"/></clipPath></defs></svg>
